X: 30837
T: Our Own Little Isle
R: jig
M: 6/8
K: Gmajor
~G3 AGA|Bee edc|~B3 GAB|AGE ~E3|
~G3 AGA|Bee edc|~B3 GAB|1 AGF G2 D:|2 AGF GBd||
gaf g2 f|edc BAG|gaf g2 f|eaa aga|
bag agf|edc BAG|~B3 GAB|1 AGF G2 d:|2 AGF G2 D||

